X:1
T:Ce sont galants
T:Clément Janequin (1485-1558)
T:http://users.skynet.be/benZene 
T:Janequin -  Ce sont Galants
T:Ce sont galants
C:Clément Janequin
C:(1485-1558)
%%score 1 2 3 4
L:1/8
M:4/4
K:F
V:1 treble nm="P1"
V:2 treble nm="P2"
V:3 treble-8 transpose=-12 nm="P3"
V:4 bass nm="P4"
V:1
 z2 c2 c2 c2 | f2 f2 e3 d | c3 B A4 | A2 AA A2 A2 | G2 F2 F2 E2 | F2 F2 A2 B2 | c4 z2 c2 | %7
w: Ce sont ga-|lants qui s'en vont|ré- jou- ir,|Ce sont ga- lants qui|s'en vont ré- jou-|ir, Ne dé- si-|rant à|
 f3 e d2 c2 | B2 A4 G2 | A4 z2 A2 | A2 A2 A2 A2 | A2 A2 ABcd | ec f4 e2 | B3 c d4 | c2 A2 A2 A2 | %15
w: au- trui fai- re|blâ- * *|me, Mais|pour ser- vir, met-|tre coeur, corps _ _ _|_ _ _ et|â- * *|me, En es- pé-|
 G2 G2 A2 c2 | c2 B2 c4 | z2 c2 c2 c2 | f2 f2 e3 d | c3 B A4 | A2 AA A2 A2 | G2 F2 F2 E2 | F4 z4 | %23
w: rant de plus grands|biens jou- ir,|Ce sont ga-|lants qui s'en vont|ré- jou- ir,|Ce sont ga- lants qui|s'en vont ré- jou-|ir,|
 z2 c2 c2 c2 | f2 f2 e3 d | c3 B A2 z2 | A2 AA A2 A2 | G2 F2 F2 E2 | F8 |] %29
w: Ce sont ga-|lants qui s'en vont|ré- jou- ir,|Ce sont ga- lants qui|s'en vont ré- jou-|ir.|
V:2
 z4 z2 A2 | A2 A2 G4 | z4 z2 C2 | C2 C2 F3 E | D2 B,2 C2 C2 | C2 C2 F4 | G4 A3 G | FEDC B,2 D2 | %8
w: Ce|sont ga- lants,|Ce|sont ga- lants qui|s'en vont ré- jou-|ir, Ne dé-|si- rant _|_ _ _ _ _ à|
 F3 E D2 D2 | F4 E2 E2 | E2 E2 F3 E | DEFG A2 A2 | A2 A2 A2 G2 | FD A4 G2 | A2 C2 F2 F2 | %15
w: au- trui fai- re|blâ- me, Mais|pour ser- vir, _|_ _ _ _ _ met-|tre coeur, corps et|â- * * *|me, En es- pé-|
 E4 z2 E2 | F2 F2 G2 G2 | A4 z2 A2 | A2 A2 G4 | z4 z2 C2 | C2 C2 F3 E | D2 B,2 C2 C2 | %22
w: rant de|plus grands biens jou-|ir, Ce|sont ga- lants,|Ce|sont ga- lants qui|s'en vont ré- jou-|
 C2 A2 A2 A2 | A4 z2 A2 | A2 A2 G4 | z4 z2 C2 | C2 C2 F3 E | D2 B,2 C2 C2 | C8 |] %29
w: ir, Ce sont ga-|lants, Ce|sont ga- lants|Ce|sont ga- lants qui|s'en vont re jou-|ir.|
V:3
 z8 | z8 | z2 c2 c2 c2 | f3 e d2 c2 | BAGF G4 | F4 z2 f2 | f2 e2 f4 | z2 e2 f3 e | d2 c2 B4 | %9
w: ||Ce sont ga-|lants qui s'en vont|ré- * * * jou-|ir, Ne|dé- si- rant|à au- trui|fai- re blâ-|
 A4 z2 c2 | c2 c2 dcde | f2 f2 f2 f2 | c2 d2 ABcA | dcBA B4 | A4 z2 c2 | c2 c2 F2 c2 | %16
w: me, Mais|pour ser- vir _ _ _|_ met- tre coeur,|corps et â- * * *||me, En|es- pé- rant de|
 d2 f2 f2 e2 | f8 | z8 | z2 c2 c2 c2 | f3 e d2 c2 | BAGF G4 | F2 c2 c2 c2 | e8 | z8 | z2 c2 c2 c2 | %26
w: plus grands biens jou-|ir,||Ce sont ga-|lants qui s'en vont|ré- * * * jou-|ir, Ce sont ga-|lants,||Ce sont ga-|
 f3 e d2 c2 | BAGF G4 | F8 |] %29
w: lants qui s'en vont|ré- * * * jou-|ir.|
V:4
 z4 z2 F,2 | F,2 F,2 C3 B, | A,3 G, F,E, F,2- | F,2 F,2 F,F,F,A,, | B,,2 D,2 C,2 C,2 | %5
w: Ce|sont ga- lants qui|s'en vont ré- jou- ir,|_ Ce sont ga- lants qui|s'en vont ré- jou-|
 F,3 E, D,2 D,2 | C,2 C,2 F,3 E, | D,C, B,,4 B,2- | B,2 F,2 G,4 | D,4 z2 A,2 | A,2 A,2 D,4- | %11
w: ir, Ne dé- si-|rant à aut- trui|_ _ fai- *|* re blâ-|me, Mais|pour ser- vir,|
 D,4 z4 | z8 | z8 | z2 F,2 F,2 F,2 | C,4 z2 A,2 | D2 D2 C2 C2 | F,4 z2 F,2 | F,2 F,2 C3 B, | %19
w: _|||En es- pé-|rant de|plus grands biens jou-|ir, Ce|sont ga- lants qui|
 A,3 G, F,E, F,2- | F,2 F,2 F,F,F,A,, | B,,2 D,2 C,2 C,2 | F,8 | z4 z2 F,2 | F,2 F,2 C3 B, | %25
w: s'en vont ré- jou- ir,|_ Ce sont ga- lants qui|s'en vont ré- jou-|ir,|Ce|sont ga- lants qui|
 A,3 G, F,E, F,2- | F,2 F,2 F,F,F,A,, | B,,2 D,2 C,2 C,2 | F,8 |] %29
w: s'en vont ré- jou- ir,|_ Ce sont ga- lants qui|s'en vont ré- jou-|ir.|

